packages/assets/static/images/icons/bold/doc-pdf--bold.svg

<svg width="24" height="24" viewBox="0 0 24 24" xmlns="http://www.w3.org/2000/svg">
<path d="M19.25 15.375V16.125H20.375C20.6734 16.125 20.9595 16.2435 21.1705 16.4545C21.3815 16.6655 21.5 16.9516 21.5 17.25C21.5 17.5484 21.3815 17.8345 21.1705 18.0455C20.9595 18.2565 20.6734 18.375 20.375 18.375H19.25V19.5C19.25 19.7984 19.1315 20.0845 18.9205 20.2955C18.7095 20.5065 18.4234 20.625 18.125 20.625C17.8266 20.625 17.5405 20.5065 17.3295 20.2955C17.1185 20.0845 17 19.7984 17 19.5V14.25C17 13.9516 17.1185 13.6655 17.3295 13.4545C17.5405 13.2435 17.8266 13.125 18.125 13.125H21.125C21.4234 13.125 21.7095 13.2435 21.9205 13.4545C22.1315 13.6655 22.25 13.9516 22.25 14.25C22.25 14.5484 22.1315 14.8345 21.9205 15.0455C21.7095 15.2565 21.4234 15.375 21.125 15.375H19.25ZM9.125 16.125C9.125 16.9206 8.80893 17.6837 8.24632 18.2463C7.68371 18.8089 6.92065 19.125 6.125 19.125H5.75V19.5C5.75 19.7984 5.63147 20.0845 5.4205 20.2955C5.20952 20.5065 4.92337 20.625 4.625 20.625C4.32663 20.625 4.04048 20.5065 3.8295 20.2955C3.61853 20.0845 3.5 19.7984 3.5 19.5V14.25C3.5 13.9516 3.61853 13.6655 3.8295 13.4545C4.04048 13.2435 4.32663 13.125 4.625 13.125H6.125C6.92065 13.125 7.68371 13.4411 8.24632 14.0037C8.80893 14.5663 9.125 15.3294 9.125 16.125ZM6.875 16.125C6.875 15.9261 6.79598 15.7353 6.65533 15.5947C6.51468 15.454 6.32391 15.375 6.125 15.375H5.75V16.875H6.125C6.32391 16.875 6.51468 16.796 6.65533 16.6553C6.79598 16.5147 6.875 16.3239 6.875 16.125ZM16.25 16.875C16.25 17.8696 15.8549 18.8234 15.1517 19.5266C14.4484 20.2299 13.4946 20.625 12.5 20.625H11C10.7016 20.625 10.4155 20.5065 10.2045 20.2955C9.99353 20.0845 9.875 19.7984 9.875 19.5V14.25C9.875 13.9516 9.99353 13.6655 10.2045 13.4545C10.4155 13.2435 10.7016 13.125 11 13.125H12.5C13.4946 13.125 14.4484 13.5201 15.1517 14.2233C15.8549 14.9266 16.25 15.8804 16.25 16.875ZM14 16.875C14 16.4772 13.842 16.0956 13.5607 15.8143C13.2794 15.533 12.8978 15.375 12.5 15.375H12.125V18.375H12.5C12.8978 18.375 13.2794 18.217 13.5607 17.9357C13.842 17.6544 14 17.2728 14 16.875ZM3.875 10.125V3.75C3.875 3.25272 4.07254 2.77581 4.42417 2.42417C4.77581 2.07254 5.25272 1.875 5.75 1.875H14.75C14.8978 1.87501 15.0442 1.90416 15.1808 1.96078C15.3174 2.0174 15.4415 2.10039 15.5459 2.205L20.7959 7.455C21.0066 7.66593 21.125 7.95187 21.125 8.25V10.125C21.125 10.4234 21.0065 10.7095 20.7955 10.9205C20.5845 11.1315 20.2984 11.25 20 11.25C19.7016 11.25 19.4155 11.1315 19.2045 10.9205C18.9935 10.7095 18.875 10.4234 18.875 10.125V9.75H14.375C14.0766 9.75 13.7905 9.63147 13.5795 9.4205C13.3685 9.20952 13.25 8.92337 13.25 8.625V4.125H6.125V10.125C6.125 10.4234 6.00647 10.7095 5.7955 10.9205C5.58452 11.1315 5.29837 11.25 5 11.25C4.70163 11.25 4.41548 11.1315 4.2045 10.9205C3.99353 10.7095 3.875 10.4234 3.875 10.125ZM15.5 5.34375V7.5H17.6562L15.5 5.34375Z"/>
</svg>

<svg viewBox="0 0 24 24" xmlns="http://www.w3.org/2000/svg" aria-hidden="true" fill="currentColor"><path d="M19.25 15.375v.75h1.125a1.125 1.125 0 1 1 0 2.25H19.25V19.5a1.125 1.125 0 1 1-2.25 0v-5.25a1.125 1.125 0 0 1 1.125-1.125h3a1.125 1.125 0 1 1 0 2.25zm-10.125.75a3 3 0 0 1-3 3H5.75v.375a1.125 1.125 0 0 1-2.25 0v-5.25a1.125 1.125 0 0 1 1.125-1.125h1.5a3 3 0 0 1 3 3m-2.25 0a.75.75 0 0 0-.75-.75H5.75v1.5h.375a.75.75 0 0 0 .75-.75m9.375.75a3.75 3.75 0 0 1-3.75 3.75H11A1.125 1.125 0 0 1 9.875 19.5v-5.25A1.125 1.125 0 0 1 11 13.125h1.5a3.75 3.75 0 0 1 3.75 3.75m-2.25 0a1.5 1.5 0 0 0-1.5-1.5h-.375v3h.375a1.5 1.5 0 0 0 1.5-1.5m-10.125-6.75V3.75A1.875 1.875 0 0 1 5.75 1.875h9a1.13 1.13 0 0 1 .796.33l5.25 5.25c.21.21.329.497.329.795v1.875a1.125 1.125 0 1 1-2.25 0V9.75h-4.5a1.125 1.125 0 0 1-1.125-1.125v-4.5H6.125v6a1.125 1.125 0 0 1-2.25 0M15.5 5.344V7.5h2.156z"/></svg>
